X: 18728
T: Ice House Schottische
R: barndance
M: 4/4
K: Cmajor
EF|:G3 F EDCB,|A,2 F2 D3 C|D2 DC DEFG|A3 G F2 E2|
D2 C2 B,CB,A,|G,2 F2 D2 DC|D2 DC DEFG|1 D6 EF:|2 D6 G2||
|:c3 c B2 G2|c2 A2 F2 B2|G2 E2 D2 DE|FEDG D2 G2|
c3 c B2 G2|c2 A2 F2 B2|G2 E2 D2 DE|1 FEDG C2 G2:|2 FEDG "D.C."C2||["Final" FEDG C4||

